src/assets/user_avatars/teacher-avatar.svg

<svg fill="none" height="86" viewBox="0 0 72 86" width="72" xmlns="http://www.w3.org/2000/svg"><g stroke-miterlimit="10" stroke-width="2"><g stroke-linecap="round" stroke-linejoin="round"><path d="m35.6326 26.7354c1.9047-13.2882-9.1092-20.88262-9.1092-20.88262" stroke="#000"/><path d="m37.6303 26.1234s11.2842-7.1708 24.827.876c13.5428 8.0469 5.9065 33.7679 5.9065 33.7679s-8.5057 23.0929-17.5402 23.0929c-4.7518.8579-11.114-2.0952-11.114-2.0952s-4.5172-2.6281-8.5057-.1716c-3.9974 2.4475-9.8949 5.0756-15.1023 0-4.84-4.7324-18.8399-20.6364-13.10369-43.2417 1.48783-5.8613 5.45836-10.8736 10.98839-13.2398 3.0474-1.3005 6.8745-2.023 11.5173-1.2824 1.3444.2167 2.653.6322 3.8988 1.1831 1.9808.885 5.7362 2.2397 8.2279 1.1108z" fill="#f44747" stroke="#000"/><path d="m40.2003 56.6829s-.8906 3.6586-4.8043 3.6586c-3.9136 0-4.8042-3.6586-4.8042-3.6586" stroke="#010101"/><path d="m44.8496 49.7723s.632-2.598 3.4147-2.598c2.7828 0 3.4147 2.598 3.4147 2.598" stroke="#000"/><path d="m19.8574 49.7723s.632-2.598 3.4147-2.598c2.7828 0 3.4147 2.598 3.4147 2.598" stroke="#000"/></g><path d="m35.8516 21.9345s-.1483-15.24262 14.1082-20.08025c0 0 4.4409 15.84615-11.8223 22.59365l-2.2859.9549z" fill="#16d2aa" stroke="#000"/></g></svg>

<svg width="72" height="86" viewBox="0 0 72 86" fill="none" xmlns="http://www.w3.org/2000/svg">
<path d="M35.6326 26.7354C37.5373 13.4472 26.5234 5.85278 26.5234 5.85278" stroke="black" stroke-width="2" stroke-miterlimit="10" stroke-linecap="round" stroke-linejoin="round"/>
<path d="M37.6303 26.1234C37.6303 26.1234 48.9145 18.9526 62.4573 26.9994C76.0001 35.0463 68.3638 60.7673 68.3638 60.7673C68.3638 60.7673 59.8581 83.8602 50.8236 83.8602C46.0718 84.7181 39.7096 81.765 39.7096 81.765C39.7096 81.765 35.1924 79.1369 31.2039 81.5934C27.2065 84.0409 21.309 86.669 16.1016 81.5934C11.2616 76.861 -2.7383 60.957 2.99791 38.3517C4.48574 32.4904 8.45627 27.4781 13.9863 25.1119C17.0337 23.8114 20.8608 23.0889 25.5036 23.8295C26.848 24.0462 28.1566 24.4617 29.4024 25.0126C31.3832 25.8976 35.1386 27.2523 37.6303 26.1234Z" fill="#F44747" stroke="black" stroke-width="2" stroke-miterlimit="10" stroke-linecap="round" stroke-linejoin="round"/>
<path d="M40.2003 56.6829C40.2003 56.6829 39.3097 60.3415 35.396 60.3415C31.4824 60.3415 30.5918 56.6829 30.5918 56.6829" stroke="#010101" stroke-width="2" stroke-miterlimit="10" stroke-linecap="round" stroke-linejoin="round"/>
<path d="M44.8496 49.7723C44.8496 49.7723 45.4816 47.1743 48.2643 47.1743C51.0471 47.1743 51.679 49.7723 51.679 49.7723" stroke="black" stroke-width="2" stroke-miterlimit="10" stroke-linecap="round" stroke-linejoin="round"/>
<path d="M19.8574 49.7723C19.8574 49.7723 20.4894 47.1743 23.2721 47.1743C26.0549 47.1743 26.6868 49.7723 26.6868 49.7723" stroke="black" stroke-width="2" stroke-miterlimit="10" stroke-linecap="round" stroke-linejoin="round"/>
<path d="M35.8516 21.9345C35.8516 21.9345 35.7033 6.69188 49.9598 1.85425C49.9598 1.85425 54.4007 17.7004 38.1375 24.4479L35.8516 25.4028V21.9345Z" fill="#16D2AA" stroke="black" stroke-width="2" stroke-miterlimit="10"/>
</svg>
